svg/fluentui-system-icons/ic_fluent_conference_room_20_regular.svg

<svg width="20" height="20" viewBox="0 0 20 20" fill="none" xmlns="http://www.w3.org/2000/svg">
<path d="M12.4869 10.0007C12.4869 10.4149 12.1512 10.7507 11.7369 10.7507C11.3227 10.7507 10.9869 10.4149 10.9869 10.0007C10.9869 9.58652 11.3227 9.25073 11.7369 9.25073C12.1512 9.25073 12.4869 9.58652 12.4869 10.0007ZM9.60469 2.01304C9.45706 1.98143 9.30304 2.01822 9.18563 2.11315C9.06822 2.20808 9 2.35097 9 2.50196L9.00063 17.4996L9 17.502C9 17.653 9.06825 17.7959 9.1857 17.8908C9.30314 17.9857 9.4572 18.0225 9.60485 17.9908L16.6043 16.4896C16.8348 16.4402 16.9994 16.2365 16.9994 16.0007V4.00074C16.9994 3.76494 16.8347 3.56119 16.6041 3.51182L9.60469 2.01304ZM10 16.8833V3.12036L15.9994 4.40501V15.5966L10 16.8833ZM8.00183 16.9984V15.9984H4V4.00305H8.00183V3.00305H3.5C3.22386 3.00305 3 3.22691 3 3.50305V16.4984C3 16.7745 3.22386 16.9984 3.5 16.9984H8.00183Z" fill="#212121"/>
</svg>

<svg xmlns="http://www.w3.org/2000/svg" width="20" height="20"><path d="M12.487 10a.75.75 0 1 1-1.5 0 .75.75 0 0 1 1.5 0ZM9.605 2.014A.5.5 0 0 0 9 2.502v15a.5.5 0 0 0 .605.489l7-1.501a.5.5 0 0 0 .394-.49V4a.5.5 0 0 0-.395-.488l-7-1.499ZM10 16.883V3.12l6 1.285v11.192l-6 1.286Zm-1.998.115v-1H4V4.003h4.002v-1H3.5a.5.5 0 0 0-.5.5v12.995a.5.5 0 0 0 .5.5h4.502Z"/></svg>
